src/icons/brand/glyph/InstagramIcon.svg

<svg width="24" height="24" viewBox="0 0 24 24" fill="none" xmlns="http://www.w3.org/2000/svg">
<path d="M12 1C9.01167 1 8.63858 1.01375 7.46525 1.066C6.29375 1.121 5.49625 1.30525 4.795 1.5775C4.07175 1.858 3.45758 2.23475 2.84617 2.84617C2.23477 3.4576 1.8571 4.07085 1.5775 4.795C1.30525 5.49625 1.12008 6.29375 1.066 7.46525C1.011 8.63858 1 9.01167 1 12C1 14.9883 1.01375 15.3614 1.066 16.5347C1.121 17.7053 1.30525 18.5037 1.5775 19.205C1.858 19.9273 2.23475 20.5424 2.84617 21.1538C3.4576 21.7643 4.07085 22.1429 4.795 22.4225C5.49717 22.6938 6.29467 22.8799 7.46525 22.934C8.63858 22.989 9.01167 23 12 23C14.9883 23 15.3614 22.9862 16.5347 22.934C17.7053 22.879 18.5037 22.6938 19.205 22.4225C19.9273 22.142 20.5424 21.7643 21.1538 21.1538C21.7643 20.5424 22.1429 19.9301 22.4225 19.205C22.6938 18.5037 22.8799 17.7053 22.934 16.5347C22.989 15.3614 23 14.9883 23 12C23 9.01167 22.9862 8.63858 22.934 7.46525C22.879 6.29467 22.6938 5.49533 22.4225 4.795C22.142 4.07175 21.7643 3.45758 21.1538 2.84617C20.5424 2.23475 19.9301 1.8571 19.205 1.5775C18.5037 1.30525 17.7053 1.12008 16.5347 1.066C15.3614 1.011 14.9883 1 12 1ZM12 2.98C14.9361 2.98 15.2863 2.99467 16.4458 3.04508C17.5183 3.0955 18.1004 3.27333 18.4873 3.4255C19.0024 3.62442 19.3673 3.86275 19.7541 4.24683C20.1382 4.63183 20.3765 4.99758 20.5754 5.51275C20.7257 5.89958 20.9054 6.48167 20.954 7.55417C21.0062 8.71467 21.0182 9.063 21.0182 12C21.0182 14.937 21.0044 15.2863 20.9503 16.4458C20.8944 17.5183 20.7157 18.1004 20.5644 18.4873C20.3591 19.0024 20.1253 19.3673 19.7403 19.7541C19.3562 20.1382 18.985 20.3765 18.4753 20.5754C18.0903 20.7257 17.4991 20.9054 16.4266 20.954C15.2587 21.0062 14.915 21.0182 11.9725 21.0182C9.02908 21.0182 8.68533 21.0044 7.51842 20.9503C6.445 20.8944 5.85375 20.7157 5.46875 20.5644C4.94717 20.3591 4.58875 20.1253 4.20467 19.7403C3.81875 19.3562 3.57217 18.985 3.37967 18.4753C3.22842 18.0903 3.0506 17.4991 2.99467 16.4266C2.95342 15.2716 2.93875 14.915 2.93875 11.9862C2.93875 9.05658 2.95342 8.69908 2.99467 7.53033C3.0506 6.45783 3.22842 5.8675 3.37967 5.4825C3.57217 4.96 3.81875 4.6025 4.20467 4.21658C4.58875 3.8325 4.94717 3.585 5.46875 3.3934C5.85375 3.24123 6.43217 3.06248 7.50467 3.00748C8.67342 2.96623 9.01717 2.95248 11.9587 2.95248L12 2.98ZM12 6.3515C8.87875 6.3515 6.3515 8.8815 6.3515 12C6.3515 15.1213 8.8815 17.6485 12 17.6485C15.1213 17.6485 17.6485 15.1185 17.6485 12C17.6485 8.87875 15.1185 6.3515 12 6.3515ZM12 15.6667C9.97417 15.6667 8.33333 14.0258 8.33333 12C8.33333 9.97415 9.97415 8.33333 12 8.33333C14.0258 8.33333 15.6667 9.97415 15.6667 12C15.6667 14.0258 14.0258 15.6667 12 15.6667ZM19.1922 6.12875C19.1922 6.8575 18.6 7.44875 17.8722 7.44875C17.1434 7.44875 16.5522 6.85658 16.5522 6.12875C16.5522 5.40092 17.1443 4.80967 17.8722 4.80967C18.5991 4.80875 19.1922 5.40092 19.1922 6.12875Z" fill="currentColor"/>
</svg>

<svg xmlns="http://www.w3.org/2000/svg" width="24" height="24" fill="currentColor" viewBox="0 0 24 24">
  <path d="M12 1c-2.988 0-3.361.014-4.535.066-1.171.055-1.969.24-2.67.511a5.387 5.387 0 0 0-1.949 1.27 5.368 5.368 0 0 0-1.269 1.948c-.272.701-.457 1.499-.511 2.67C1.011 8.64 1 9.012 1 12c0 2.988.014 3.361.066 4.535.055 1.17.24 1.969.511 2.67a5.406 5.406 0 0 0 1.27 1.949 5.38 5.38 0 0 0 1.948 1.268c.702.272 1.5.458 2.67.512C8.64 22.989 9.012 23 12 23c2.988 0 3.361-.014 4.535-.066 1.17-.055 1.969-.24 2.67-.512a5.407 5.407 0 0 0 1.949-1.268 5.375 5.375 0 0 0 1.268-1.949c.272-.701.458-1.5.512-2.67C22.989 15.36 23 14.988 23 12c0-2.988-.014-3.361-.066-4.535-.055-1.17-.24-1.97-.512-2.67a5.399 5.399 0 0 0-1.268-1.949 5.36 5.36 0 0 0-1.949-1.269c-.701-.272-1.5-.457-2.67-.511C15.36 1.011 14.988 1 12 1Zm0 1.98c2.936 0 3.286.015 4.446.065 1.072.05 1.654.228 2.041.38.515.2.88.438 1.267.822.384.385.622.75.821 1.266.15.387.33.969.379 2.041.052 1.16.064 1.509.064 4.446s-.014 3.286-.068 4.446c-.056 1.072-.234 1.654-.386 2.041-.205.515-.439.88-.824 1.267a3.431 3.431 0 0 1-1.265.821c-.385.15-.976.33-2.048.379-1.168.052-1.512.064-4.454.064-2.944 0-3.288-.014-4.455-.068-1.073-.056-1.664-.234-2.05-.386a3.406 3.406 0 0 1-1.263-.824 3.34 3.34 0 0 1-.825-1.265c-.152-.385-.33-.976-.385-2.048-.042-1.155-.056-1.512-.056-4.44 0-2.93.014-3.288.056-4.457.056-1.072.233-1.663.385-2.048.192-.522.439-.88.825-1.265.384-.384.742-.632 1.264-.824.385-.152.963-.33 2.036-.386 1.168-.04 1.512-.055 4.454-.055L12 2.98Zm0 3.371a5.648 5.648 0 1 0 0 11.297 5.648 5.648 0 0 0 0-11.296Zm0 9.316A3.666 3.666 0 0 1 8.333 12 3.666 3.666 0 0 1 12 8.333 3.666 3.666 0 0 1 15.667 12 3.666 3.666 0 0 1 12 15.667Zm7.192-9.538a1.32 1.32 0 0 1-2.64 0 1.32 1.32 0 0 1 2.64 0Z"/>
</svg>
